X:1
T: Ain Kind Dearrie
C:
R:Reel
I:speed 232
Q:232
K:A
M:4/4
L:1/8
|:B|AF EF A2AB|A1/2B1/2c BA BF FB|AF EF A2 Aa|f2 ec eA AB|
AF EF A2AB|A1/2B1/2c BA BF FB|AF EF A2 Aa|f2 ec eA Af|
ef1/2g1/2 ae fe ac|B2 cA BF FB|AF EF A2 Aa|f2 ec eA Af|
ef1/2g1/2 ae fe ac|B2 cA BF FB|AF EF AB ce|fa ef cA A:|
